X:1
T:Ristad, 87.87.66.88
T:Geistreiches Gesangbuch (Halle, German
T:Ristad, 87.87.66.88
T:Public Domain
C:Geistreiches Gesangbuch (Halle, German
Z:Public Domain
%%score ( 1 2 ) 3
L:1/8
M:4/4
K:F
V:1 treble 
V:2 treble 
V:3 bass 
V:1
 C2 | [CF]2 [DA]2 [DG]2 [DB]2 | [FA]2 [DF]2 [CE]2 [Fc]2 | [FB]2 [FA]2 [FB]2 [Gc]2 | %4
 (G2 F2) [EG]2 C2 | [CF]2 [DA]2 [DG]2 [DB]2 | [FA]2 [DF]2 [CE]2 [Fc]2 | [FB]2 [FA]2 [FB]2 [Gc]2 | %8
 (G2 F2) [EG]2 [EG]2 | [DG]2 [^FA]2 [GB]2 [=FA]2 | [EG]6 [Gc]2 | [Fc]2 [Fd]2 [Gc]2 [EB]2 | %12
 [FA]6 [FA]2 | D2 [=B,D]2 [CG]2 [DF]2 | [CE]2 (C=B,) C2 [Ec]2 | [Fc]2 [FB]2 [GB]2 [FA]2 | %16
 [FG]2 [EG]2 [CF]2 |] %17
V:2
 C2 | x8 | x8 | x8 | A4 C2 x2 | x8 | x8 | x8 | A4 x4 | x8 | x8 | x8 | x8 | D2 x6 | x2 D2 C2 x2 | %15
 x8 | x6 |] %17
V:3
 [F,A,]2 | [F,A,]2 [D,F,]2 [B,,B,]2 [G,,B,]2 | [A,,C]2 [=B,,G,]2 [C,G,]2 [A,,C]2 | %3
 [B,,D]2 [F,C]2 [D,D]2 [E,C]2 | [F,C]4 [C,C]2 [F,A,]2 | [F,A,]2 [D,F,]2 [B,,B,]2 [G,,B,]2 | %6
 [A,,C]2 [=B,,G,]2 [C,G,]2 [A,,C]2 | [B,,D]2 [F,C]2 [D,D]2 [E,C]2 | [F,C]4 [C,C]2 [C,C]2 | %9
 [B,,D]2 [A,,C]2 [G,,D]2 [A,,C]2 | [C,C]6 [E,C]2 | [F,A,]2 [D,A,]2 [E,C]2 [C,C]2 | [F,C]6 [F,C]2 | %13
 [G,=B,]2 [F,G,]2 [E,G,]2 [=B,,G,]2 | [C,G,]2 [G,,G,]2 [C,E,]2 [C,C]2 | %15
 [A,,C]2 [B,,D]2 [G,,D]2 [A,,C]2 | [B,,D]2 [C,C]2 [F,A,]2 |] %17

